X: 13424
T: Floating Crowbar, The
R: reel
M: 4/4
K: Dmixolydian
|:AD (3DDD ADBD|ADDF ABAG|EG (3GGG AG (3GGG|EGGF GBdB|
AD (3DDD ADBD|ADDF G2FG|A3B cded|cAGE D2FG:|
K: Dmaj
|:Addc d2cd|eaag efge|A3B AGFG|ABAG EFGB|
Addc d2cd|eaag efge|afge dfed|cAGE D2FG:|

